X:1
T:About She Goes
%%VWML:RutherfordSelect-4785-p1-0
F:http://www.vwml.org/record/RutherfordSelect/4785/p1
Z:Transcribed by David Jacobs February 2016
S:12 Selected Country Dances 1772, John Rutherford
L:1/8
M:6/8
K:A
V:1     clef=treble
V:2     clef=bass
V:1 
c|ABA ecA|acA ecA|dfd cec|dBG dBG|ABA ecA|acA ecA|dfd Bag|aecA2:|
f/g/|ead cea|dfa cea|Bd=g Bdg|dB=G G2B|cAc dbd|ece fdf|geg a/g/f/g/a|ecAA2:|
V:2
z|A,3A,3|A,3A,3|D,3A,,3|"7"E,3"---"E,3|A,,3A,,3|A,,3A,,3|D,3"7"E,2"--"E,,|A,,3A,,2:|
z|A,,3A,,3|D,3A,,3|=G,,3G,,3|G,,3G,,3|A,,3"6"B,,3|"6"C,3D,3|E,3"6"C,3|A,,3A,,2:|
W:
W:The 1st. 2nd. and 3rd. Cu's Foot it hands around Six .|
W:The same back again :|
W:Cross over 2 Cu. Lead up to the top and cast off .|.
W:Righ hands across with the third Cu right and top at left :|:

